src/assets/icons/mail-sending.svg

<svg width="24" height="24" viewBox="0 0 24 24" fill="none" xmlns="http://www.w3.org/2000/svg">
<path d="M21.4274 2.5783C20.9274 2.0673 20.1874 1.8783 19.4974 2.0783L3.40742 6.7273C2.67942 6.9293 2.16342 7.5063 2.02442 8.2383C1.88242 8.9843 2.37842 9.9323 3.02642 10.3283L8.05742 13.4003C8.57342 13.7163 9.23942 13.6373 9.66642 13.2093L15.4274 7.4483C15.7174 7.1473 16.1974 7.1473 16.4874 7.4483C16.7774 7.7373 16.7774 8.2083 16.4874 8.5083L10.7164 14.2693C10.2884 14.6973 10.2084 15.3613 10.5234 15.8783L13.5974 20.9283C13.9574 21.5273 14.5774 21.8683 15.2574 21.8683C15.3374 21.8683 15.4274 21.8683 15.5074 21.8573C16.2874 21.7583 16.9074 21.2273 17.1374 20.4773L21.9074 4.5083C22.1174 3.8283 21.9274 3.0883 21.4274 2.5783Z" fill="white"/>
<path opacity="0.4" d="M9.45139 19.1423C9.74339 19.4353 9.74339 19.9103 9.45139 20.2033L8.08539 21.5683C7.93939 21.7153 7.74739 21.7883 7.55539 21.7883C7.36339 21.7883 7.17139 21.7153 7.02539 21.5683C6.73239 21.2753 6.73239 20.8013 7.02539 20.5083L8.39039 19.1423C8.68339 18.8503 9.15839 18.8503 9.45139 19.1423ZM8.66769 15.3543C8.95969 15.6473 8.95969 16.1223 8.66769 16.4153L7.30169 17.7803C7.15569 17.9273 6.96369 18.0003 6.77169 18.0003C6.57969 18.0003 6.38769 17.9273 6.24169 17.7803C5.94869 17.4873 5.94869 17.0133 6.24169 16.7203L7.60669 15.3543C7.89969 15.0623 8.37469 15.0623 8.66769 15.3543ZM4.90649 14.1619C5.19849 14.4549 5.19849 14.9299 4.90649 15.2229L3.54049 16.5879C3.39449 16.7349 3.20249 16.8079 3.01049 16.8079C2.81849 16.8079 2.62649 16.7349 2.48049 16.5879C2.18749 16.2949 2.18749 15.8209 2.48049 15.5279L3.84549 14.1619C4.13849 13.8699 4.61349 13.8699 4.90649 14.1619Z" fill="white"/>
</svg>

<svg xmlns="http://www.w3.org/2000/svg" width="24" height="24" fill="#fff" xmlns:v="https://vecta.io/nano"><path d="M21.427 2.578a1.94 1.94 0 0 0-1.93-.5L3.407 6.727c-.728.202-1.244.779-1.383 1.511-.142.746.354 1.694 1.002 2.09L8.057 13.4a1.31 1.31 0 0 0 1.609-.191l5.761-5.761c.29-.301.77-.301 1.06 0 .29.289.29.76 0 1.06l-5.771 5.761a1.31 1.31 0 0 0-.193 1.609l3.074 5.05c.36.599.98.94 1.66.94l.25-.011c.78-.099 1.4-.63 1.63-1.38l4.77-15.969c.21-.68.02-1.42-.48-1.93z"/><path opacity=".4" d="M9.451 19.142a.75.75 0 0 1 0 1.061l-1.366 1.365c-.146.147-.338.22-.53.22s-.384-.073-.53-.22a.75.75 0 0 1 0-1.06l1.365-1.366a.75.75 0 0 1 1.061 0zm-.784-3.788a.75.75 0 0 1 0 1.061L7.302 17.78c-.146.147-.338.22-.53.22s-.384-.073-.53-.22a.75.75 0 0 1 0-1.06l1.365-1.366a.75.75 0 0 1 1.061 0zm-3.761-1.192a.75.75 0 0 1 0 1.061L3.54 16.588c-.146.147-.338.22-.53.22s-.384-.073-.53-.22a.75.75 0 0 1 0-1.06l1.365-1.366a.75.75 0 0 1 1.061 0z"/></svg>
